22x22/apps/com.dhsdevelopments.Climaxima.svg

<svg xmlns="http://www.w3.org/2000/svg" width="22" height="22" version="1.1">
 <rect style="opacity:0.2" width="20" height="20" x="1" y="1.5" rx="1" ry="1"/>
 <path style="fill:#005bb7" d="M 3.1029724,2.2663758 11.949714,1 H 20 c 0.554,0 1,0.446 1,1 v 8.172839 l -1.47063,8.80589 c -0.09126,0.546433 -0.449994,0.933595 -1,1 L 10.070576,21 H 2 C 1.446,21 1,20.554 1,20 V 11.806872 L 2.1029725,3.2663758 c 0.070958,-0.549437 0.4515902,-0.9214974 0.9999999,-1 z"/>
 <path style="opacity:0.1;fill:#f4f4f7" d="M 2,1 C 1.446,1 1,1.446 1,2 v 0.5 c 0,-0.554 0.446,-1 1,-1 h 18 c 0.554,0 1,0.446 1,1 V 2 C 21,1.446 20.554,1 20,1 Z"/>
 <path style="opacity:0.2" d="m 4.4277345,12.000977 c -1.0771946,-0.01074 -2.2403986,0.04844 -3.4121095,0.04297 v 0.5 c 3.1245625,0.01461 6.185646,-0.430711 7.729492,1.216796 0.98626,1.052483 1.221208,2.438824 1.253906,4.0625 0.0024,-1.83689 -0.169186,-3.404946 -1.253906,-4.5625 C 7.7802135,12.23105 6.2230585,12.018879 4.4277345,12.000977 Z M 9.966797,20.5 c -0.0028,0.170667 -0.0077,0.326169 -0.0088,0.5 z"/>
 <path style="fill:#0a84ff" d="M 2,1 C 1.446,1 1,1.446 1,2 v 18 c 0,0.05286 0.0078,0.1037 0.015625,0.154297 v -8.110351 c 3.1245625,0.01461 6.185646,-0.430712 7.729492,1.216796 C 10.41431,15.042012 9.926102,17.772397 9.954102,21 H 20 c 0.554,0 1,-0.446 1,-1 V 9.954102 C 17.772397,9.926104 15.042012,10.41431 13.260742,8.745117 11.613235,7.201271 12.058555,4.1401875 12.043946,1.015625 h 8.110351 C 20.1037,1.0077988 20.052856,1 20,1 Z M 21,9.954102 V 2 C 21,1.978572 20.9945,1.958585 20.9932,1.9375 20.97352,3.1868218 20.95336,9.09287 21,9.954102 Z M 9.954102,21 C 9.09287,20.953323 3.1868218,20.973479 1.9375,20.993164 1.958585,20.994479 1.9785724,21 2,21 Z"/>
 <g transform="matrix(0.0170564,0,0,0.01634454,-9.7041595,17.17139)">
  <path style="opacity:0.2" d="M 1331.1226,142.47021 V 80.922336 L 1461.6579,-74.225586 1331.1226,-228.56362 v -57.24372 h 351.7742 v 122.36499 h -58.0443 l -1.1697,-61.18251 h -211.3815 l 131.4043,150.830488 -131.4043,155.082068 h 212.2251 l -0.5175,-61.182511 h 57.0283 V 142.47021 Z"/>
 </g>
 <g transform="matrix(0.0170564,0,0,0.01634454,-9.7041595,16.67139)">
  <path style="fill:#f4f4f7" d="M 1331.1226,142.47021 V 80.922336 L 1461.6579,-74.225586 1331.1226,-228.56362 v -57.24372 h 351.7742 v 122.36499 h -58.0443 l -1.1697,-61.18251 h -211.3815 l 131.4043,150.830488 -131.4043,155.082068 h 212.2251 l -0.5175,-61.182511 h 57.0283 V 142.47021 Z"/>
 </g>
 <path style="opacity:0.2;fill:#f4f4f7" d="M 2,1 C 1.446,1 1,1.446 1,2 v 0.5 c 0,-0.554 0.446,-1 1,-1 h 10.036133 c 0.0014,-0.1633372 0,0 0.0078,-0.484375 C 12.043946,1.015625 7.848301,1 2,1 Z m 10.003906,3.5078125 c -0.0087,1.9686895 0.148778,3.698966 1.256836,4.7373045 1.781271,1.669193 4.511655,1.180987 7.739258,1.208985 -0.004,-0.07474 -0.0047,-0.355623 -0.0078,-0.5 C 17.768057,9.926972 15.040544,10.412936 13.26074,8.745117 12.246829,7.795002 12.02754,6.268362 12.003904,4.5078125 Z M 9.995117,17.988281 C 9.988061,18.929427 9.944855,19.93413 9.954102,21 h 0.0039 c 0.0064,-1.067727 0.04755,-2.07912 0.03711,-3.011719 z M 9.954102,21 C 9.09287,20.953323 3.1868218,20.973479 1.9375,20.993164 1.958585,20.994479 1.9785724,21 2,21 Z"/>
</svg>

<svg xmlns="http://www.w3.org/2000/svg" width="22" height="22"><rect style="opacity:.2" width="20" height="20" x="1" y="1.5" rx="1" ry="1"/><path style="fill:#005bb7" d="M3.103 2.266 11.95 1H20c.554 0 1 .446 1 1v8.173l-1.47 8.806c-.092.546-.45.933-1 1L10.07 21H2c-.554 0-1-.446-1-1v-8.193l1.103-8.54c.07-.55.452-.922 1-1z"/><path style="opacity:.1;fill:#f4f4f7" d="M2 1c-.554 0-1 .446-1 1v.5c0-.554.446-1 1-1h18c.554 0 1 .446 1 1V2c0-.554-.446-1-1-1z"/><path style="opacity:.2" d="M4.428 12.001c-1.077-.01-2.24.048-3.412.043v.5c3.124.015 6.185-.43 7.73 1.217.985 1.052 1.22 2.439 1.253 4.062.002-1.837-.17-3.405-1.254-4.562-.965-1.03-2.522-1.242-4.317-1.26zM9.967 20.5c-.003.17-.008.326-.009.5z"/><path style="fill:#0a84ff" d="M2 1c-.554 0-1 .446-1 1v18c0 .053.008.104.016.154v-8.11c3.124.015 6.185-.43 7.73 1.217 1.668 1.781 1.18 4.511 1.208 7.739H20c.554 0 1-.446 1-1V9.954c-3.228-.028-5.958.46-7.74-1.209-1.647-1.544-1.201-4.605-1.216-7.73h8.11A1.002 1.002 0 0 0 20 1zm19 8.954V2c0-.021-.006-.041-.007-.063-.02 1.25-.04 7.156.007 8.017zM9.954 21c-.861-.047-6.767-.027-8.017-.007.022.001.042.007.063.007z"/><path style="opacity:.2" d="M1331.123 142.47V80.922l130.535-155.148-130.535-154.338v-57.243h351.774v122.365h-58.044l-1.17-61.183H1412.3l131.405 150.83L1412.3 81.289h212.225l-.517-61.183h57.028V142.47z" transform="matrix(.01706 0 0 .01634 -9.704 17.171)"/><path style="fill:#f4f4f7" d="M1331.123 142.47V80.922l130.535-155.148-130.535-154.338v-57.243h351.774v122.365h-58.044l-1.17-61.183H1412.3l131.405 150.83L1412.3 81.289h212.225l-.517-61.183h57.028V142.47z" transform="matrix(.01706 0 0 .01634 -9.704 16.671)"/><path style="opacity:.2;fill:#f4f4f7" d="M2 1c-.554 0-1 .446-1 1v.5c0-.554.446-1 1-1h10.036l.008-.484S7.848 1 2 1zm10.004 3.508c-.009 1.969.149 3.699 1.257 4.737 1.781 1.67 4.511 1.181 7.739 1.21-.004-.076-.005-.357-.008-.5-3.224-.028-5.951.458-7.731-1.21-1.014-.95-1.233-2.477-1.257-4.237zm-2.009 13.48c-.007.941-.05 1.946-.04 3.012h.003c.006-1.068.048-2.08.037-3.012zM9.955 21c-.862-.047-6.768-.027-8.018-.007.022.001.042.007.063.007z"/></svg>
